X: 120013
T: ORANGE AND BLUE
Q: "Highland Schottische."
R: Schottische.
%R: shottish
B: James Kerr "Merry Melodies" v.1 p.20 s.0 #13
Z: 2017 John Chambers <jc:trillian.mit.edu>
M: C
L: 1/8
K: D
ua>ug |\
(f<d)d2 (A<d)d2 | vf>vdua>uf d2ud>uf |\
g<ee2 (B<e)e2 | c>Ae>c A2ua>ug |\
(f<d)d2 (A<d)d2 | f>da>f d2 (3(fga) |\
vb>vga>uf g>ef>d | e>c (3(ABc) d2 |]
ua>ug |\
(f<a)a2 (f<a)a2 | f>da>f d2d>f |\
(g<b)b2 (g<b)b2 | g>eb>g e2e>g |\
(f<a)a2 (f<a)a2 | f>da>f d2 (3(fga) |\
b>ga>f g>ef>d | e>c (3(ABc) d2 |]

%%sep 1 1 500
%%sep 1 1 500

